assets/Waxing crescent moon/Flat/waxing_crescent_moon_flat.svg

<svg width="32" height="32" viewBox="0 0 32 32" fill="none" xmlns="http://www.w3.org/2000/svg">
<path d="M29 16C29 23.2512 24.5 27 17.4242 29.9285C16.9559 29.9758 16.4808 30 16 30C8.26801 30 2 23.732 2 16C2 8.26801 8.26801 2 16 2C16.4633 2 16.9214 2.02251 17.3732 2.06649C24 4.5 29 8.73134 29 16Z" fill="#533566"/>
<path d="M17 5.5C17 6.32843 16.3284 7 15.5 7C14.6716 7 14 6.32843 14 5.5C14 4.67157 14.6716 4 15.5 4C16.3284 4 17 4.67157 17 5.5ZM13 12.5C13 14.433 11.433 16 9.5 16C7.567 16 6 14.433 6 12.5C6 10.567 7.567 9 9.5 9C11.433 9 13 10.567 13 12.5ZM22.5 14C23.8807 14 25 12.8807 25 11.5C25 10.1193 23.8807 9 22.5 9C21.1193 9 20 10.1193 20 11.5C20 12.8807 21.1193 14 22.5 14ZM19 21.5C19 22.8807 17.8807 24 16.5 24C15.1193 24 14 22.8807 14 21.5C14 20.1193 15.1193 19 16.5 19C17.8807 19 19 20.1193 19 21.5ZM4.75012 24.3346C6.15381 26.2261 8.02324 27.7514 10.1888 28.7407C10.6953 28.1336 11 27.3524 11 26.5C11 24.567 9.433 23 7.50001 23C6.38459 23 5.39104 23.5218 4.75012 24.3346Z" fill="#321B41"/>
<path d="M17.3995 29.9309C24.4744 29.2288 30 23.2597 30 16C30 8.26801 23.732 2 16 2C16.5 2 16.6194 2.01346 16 2C16.4723 2 16.9392 2.0234 17.3995 2.06909C19.6856 3.94201 21.5024 6.36659 22.6464 9.13952C22.2416 9.65086 22 10.2972 22 11C22 12.2549 22.7704 13.3298 23.8641 13.7775C23.9538 14.5058 24 15.2475 24 16C24 21.6152 21.4288 26.6299 17.3995 29.9309Z" fill="#FCD53F"/>
<path d="M25 11.5001C25 10.2047 24.0148 9.13939 22.7527 9.0127C22.2843 9.54193 22 10.2378 22 11.0001C22 12.1871 22.6893 13.2131 23.6895 13.6995C24.47 13.2765 25 12.4502 25 11.5001ZM24.8816 26.8227C26.658 25.3632 28.0686 23.475 28.9554 21.3161C28.5122 21.1132 28.0193 21.0001 27.5 21.0001C25.567 21.0001 24 22.5671 24 24.5001C24 25.3914 24.3331 26.2048 24.8816 26.8227Z" fill="#F9C23C"/>
</svg>

<svg xmlns="http://www.w3.org/2000/svg" width="32" height="32" fill="none"><path fill="#533566" d="M29 16c0 7.251-4.5 11-11.576 13.928-.468.048-.943.072-1.424.072-7.732 0-14-6.268-14-14S8.268 2 16 2c.463 0 .921.023 1.373.066C24 4.5 29 8.731 29 16Z"/><path fill="#321B41" d="M17 5.5a1.5 1.5 0 1 1-3 0 1.5 1.5 0 0 1 3 0Zm-4 7a3.5 3.5 0 1 1-7 0 3.5 3.5 0 0 1 7 0Zm9.5 1.5a2.5 2.5 0 1 0 0-5 2.5 2.5 0 0 0 0 5ZM19 21.5a2.5 2.5 0 1 1-5 0 2.5 2.5 0 0 1 5 0ZM4.75 24.335a14.054 14.054 0 0 0 5.439 4.406 3.5 3.5 0 1 0-5.439-4.406Z"/><path fill="#FCD53F" d="M17.4 29.93C24.474 29.23 30 23.26 30 16c0-7.732-6.268-14-14-14 .5 0 .62.013 0 0 .472 0 .94.023 1.4.07a18.05 18.05 0 0 1 5.246 7.07 3 3 0 0 0 1.218 4.638c.09.728.136 1.47.136 2.222 0 5.615-2.571 10.63-6.6 13.93Z"/><path fill="#F9C23C" d="M25 11.5a2.5 2.5 0 0 0-2.247-2.487 3 3 0 0 0 .937 4.687A2.5 2.5 0 0 0 25 11.5Zm-.118 15.323a14.038 14.038 0 0 0 4.073-5.507 3.5 3.5 0 0 0-4.074 5.507Z"/></svg>
